X:86
T:Troop. JBs.086
S:Jas.Blackshaw MS, 1837, N.Shropshire
A:North Shropshire
Z:T. Weatherall 2006
M:3/8
L:1/16
Q:3/4=60
R:Military Air
K:F
(3fed|c2f2f2|e2g2g2|agafcâ€™a|bagfeg|\
c2f2f2e2g2g2|fedc=Bd|!
c4 de|f2b2a2|\
agg2ga|f2câ€™2b2|baa2a2|câ€™2e2g2|a2d2f2|edefge|f4:|!
|:AG|F3GFG|A2A2A2|G3AGA|B2B2B2|A2c2e2|dcB2A2|\
A2G2G2|G3AGA|!
F3GFG|A2A2A2|G3AGA|B2B2B2|A2c2e2|edefge|f2f2f2|f4:|

